Numix-Circle/48x48/apps/godot.svg

<?xml version="1.0" encoding="UTF-8" standalone="no"?>
<svg
   xmlns:dc="http://purl.org/dc/elements/1.1/"
   xmlns:cc="http://creativecommons.org/ns#"
   xmlns:rdf="http://www.w3.org/1999/02/22-rdf-syntax-ns#"
   xmlns:svg="http://www.w3.org/2000/svg"
   xmlns="http://www.w3.org/2000/svg"
   xmlns:sodipodi="http://sodipodi.sourceforge.net/DTD/sodipodi-0.dtd"
   xmlns:inkscape="http://www.inkscape.org/namespaces/inkscape"
   viewBox="0 0 48 48"
   id="svg2"
   version="1.1"
   inkscape:version="0.48.5 r10040"
   width="100%"
   height="100%"
   sodipodi:docname="godot.svg">
  <metadata
     id="metadata93">
    <rdf:RDF>
      <cc:Work
         rdf:about="">
        <dc:format>image/svg+xml</dc:format>
        <dc:type
           rdf:resource="http://purl.org/dc/dcmitype/StillImage" />
      </cc:Work>
    </rdf:RDF>
  </metadata>
  <sodipodi:namedview
     pagecolor="#ffffff"
     bordercolor="#666666"
     borderopacity="1"
     objecttolerance="10"
     gridtolerance="10"
     guidetolerance="10"
     inkscape:pageopacity="0"
     inkscape:pageshadow="2"
     inkscape:window-width="1280"
     inkscape:window-height="998"
     id="namedview91"
     showgrid="true"
     inkscape:zoom="4"
     inkscape:cx="25.439288"
     inkscape:cy="15.456199"
     inkscape:window-x="0"
     inkscape:window-y="0"
     inkscape:window-maximized="1"
     inkscape:current-layer="svg2">
    <inkscape:grid
       type="xygrid"
       id="grid3081" />
  </sodipodi:namedview>
  <defs
     id="defs4">
    <linearGradient
       id="linearGradient3764"
       x1="1"
       x2="47"
       gradientUnits="userSpaceOnUse"
       gradientTransform="matrix(0,-1,1,0,-1.5e-6,47.999998)">
      <stop
         stop-color="#e4e4e4"
         stop-opacity="1"
         id="stop7" />
      <stop
         offset="1"
         stop-color="#eee"
         stop-opacity="1"
         id="stop9" />
    </linearGradient>
    <clipPath
       id="clipPath-115814090">
      <g
         transform="translate(0,-1004.3622)"
         id="g12">
        <path
           d="m -24 13 c 0 1.105 -0.672 2 -1.5 2 -0.828 0 -1.5 -0.895 -1.5 -2 0 -1.105 0.672 -2 1.5 -2 0.828 0 1.5 0.895 1.5 2 z"
           transform="matrix(15.333333,0,0,11.5,414.99999,878.8622)"
           fill="#1890d0"
           id="path14" />
      </g>
    </clipPath>
    <clipPath
       id="clipPath-121566083">
      <g
         transform="translate(0,-1004.3622)"
         id="g17">
        <path
           d="m -24 13 c 0 1.105 -0.672 2 -1.5 2 -0.828 0 -1.5 -0.895 -1.5 -2 0 -1.105 0.672 -2 1.5 -2 0.828 0 1.5 0.895 1.5 2 z"
           transform="matrix(15.333333,0,0,11.5,414.99999,878.8622)"
           fill="#1890d0"
           id="path19" />
      </g>
    </clipPath>
  </defs>
  <g
     id="g21">
    <path
       d="m 36.31 5 c 5.859 4.062 9.688 10.831 9.688 18.5 c 0 12.426 -10.07 22.5 -22.5 22.5 c -7.669 0 -14.438 -3.828 -18.5 -9.688 c 1.037 1.822 2.306 3.499 3.781 4.969 c 4.085 3.712 9.514 5.969 15.469 5.969 c 12.703 0 23 -10.298 23 -23 c 0 -5.954 -2.256 -11.384 -5.969 -15.469 c -1.469 -1.475 -3.147 -2.744 -4.969 -3.781 z m 4.969 3.781 c 3.854 4.113 6.219 9.637 6.219 15.719 c 0 12.703 -10.297 23 -23 23 c -6.081 0 -11.606 -2.364 -15.719 -6.219 c 4.16 4.144 9.883 6.719 16.219 6.719 c 12.703 0 23 -10.298 23 -23 c 0 -6.335 -2.575 -12.06 -6.719 -16.219 z"
       opacity="0.05"
       id="path23" />
    <path
       d="m 41.28 8.781 c 3.712 4.085 5.969 9.514 5.969 15.469 c 0 12.703 -10.297 23 -23 23 c -5.954 0 -11.384 -2.256 -15.469 -5.969 c 4.113 3.854 9.637 6.219 15.719 6.219 c 12.703 0 23 -10.298 23 -23 c 0 -6.081 -2.364 -11.606 -6.219 -15.719 z"
       opacity="0.1"
       id="path25" />
    <path
       d="m 31.25 2.375 c 8.615 3.154 14.75 11.417 14.75 21.13 c 0 12.426 -10.07 22.5 -22.5 22.5 c -9.708 0 -17.971 -6.135 -21.12 -14.75 a 23 23 0 0 0 44.875 -7 a 23 23 0 0 0 -16 -21.875 z"
       opacity="0.2"
       id="path27" />
  </g>
  <g
     id="g29">
    <path
       d="m 24 1 c 12.703 0 23 10.297 23 23 c 0 12.703 -10.297 23 -23 23 -12.703 0 -23 -10.297 -23 -23 0 -12.703 10.297 -23 23 -23 z"
       id="path31"
       fill-opacity="1"
       fill="url(#linearGradient3764)" />
  </g>
  <path
     style="fill:#000000;fill-opacity:1;stroke:none;opacity:0.1"
     d="m 22.5,13.9995 -2.96875,1 0.46875,3 -2.5625,1.40625 L 16,17.9995 l -3,3 2,2 0,5.4375 0.5,0.03125 0,1.625 2,0.78125 0,-1.71875 c 1.485157,0.323442 2.153984,0.463465 3,0.53125 l 0,1.5625 2,0.59375 0,-1.84375 2.5,0 2.5,0 0,1.84375 2,-0.59375 0,-1.5625 c 0.846016,-0.06779 1.514843,-0.207808 3,-0.53125 l 0,1.71875 2,-0.78125 0,-1.625 0.5,-0.03125 0,-5.4375 2,-2 -3,-3 -1.4375,1.40625 L 30,17.9995 l 0.46875,-3 -2.96875,-1 -1.125,2 -1.375,0 -1.375,0 -1.125,-2 z m -3,9 c 1.380712,0 2.5,1.119288 2.5,2.5 0,1.380712 -1.119288,2.5 -2.5,2.5 -1.380712,0 -2.5,-1.119288 -2.5,-2.5 0,-1.380712 1.119288,-2.5 2.5,-2.5 z m 11,0 c 1.380712,0 2.5,1.119288 2.5,2.5 0,1.380712 -1.119288,2.5 -2.5,2.5 -1.380712,0 -2.5,-1.119288 -2.5,-2.5 0,-1.380712 1.119288,-2.5 2.5,-2.5 z m -11,1 c -0.828427,0 -1.5,0.671573 -1.5,1.5 0,0.828427 0.671573,1.5 1.5,1.5 0.828427,0 1.5,-0.671573 1.5,-1.5 0,-0.828427 -0.671573,-1.5 -1.5,-1.5 z m 11,0 c -0.828427,0 -1.5,0.671573 -1.5,1.5 0,0.828427 0.671573,1.5 1.5,1.5 0.828427,0 1.5,-0.671573 1.5,-1.5 0,-0.828427 -0.671573,-1.5 -1.5,-1.5 z m -5.5,1 c 0.554,0 1,0.446 1,1 l 0,2 c 0,0.554 -0.446,1 -1,1 -0.554,0 -1,-0.446 -1,-1 l 0,-2 c 0,-0.554 0.446,-1 1,-1 z m -11.6875,3.5 0.03125,2 c 2.416122,3.6915 6.057323,5.861216 11.65625,5.625 5.598927,0.236216 9.240128,-1.9335 11.65625,-5.625 l 0.03125,-2 L 35,29.03075 35,30.4995 c -0.48943,0.315099 -2,0.727751 -3,1 l 0,-1.625 -2,0.3125 0,1.3125 c -0.565763,0.478079 -1.621475,0.792842 -3,1 l 0,-2 -2,0 -2,0 0,2 c -1.378525,-0.207158 -2.434237,-0.521921 -3,-1 l 0,-1.3125 -2,-0.3125 0,1.625 c -1,-0.272249 -2.51057,-0.684901 -3,-1 l 0,-1.46875 -1.6875,-0.53125 z"
     id="path4037"
     inkscape:connector-curvature="0" />
  <g
     id="g33" />
  <g
     id="g87">
    <path
       d="m 40.03 7.531 c 3.712 4.084 5.969 9.514 5.969 15.469 0 12.703 -10.297 23 -23 23 c -5.954 0 -11.384 -2.256 -15.469 -5.969 4.178 4.291 10.01 6.969 16.469 6.969 c 12.703 0 23 -10.298 23 -23 0 -6.462 -2.677 -12.291 -6.969 -16.469 z"
       opacity="0.1"
       id="path89" />
  </g>
  <path
     style="fill:#478cbf;fill-opacity:1;stroke:none"
     d="M 12.3125 27.5 L 12.34375 29.5 C 14.759872 33.1915 18.401073 35.361216 24 35.125 C 29.598927 35.361216 33.240128 33.1915 35.65625 29.5 L 35.6875 27.5 L 34 28.03125 L 34 29.5 C 33.51057 29.815099 32 30.227751 31 30.5 L 31 28.875 L 29 29.1875 L 29 30.5 C 28.434237 30.978079 27.378525 31.292842 26 31.5 L 26 29.5 L 24 29.5 L 22 29.5 L 22 31.5 C 20.621475 31.292842 19.565763 30.978079 19 30.5 L 19 29.1875 L 17 28.875 L 17 30.5 C 16 30.227751 14.48943 29.815099 14 29.5 L 14 28.03125 L 12.3125 27.5 z "
     id="path3085" />
  <path
     sodipodi:type="arc"
     style="fill:#353535;fill-opacity:1;fill-rule:nonzero;stroke:none"
     id="path3889"
     sodipodi:cx="19"
     sodipodi:cy="25"
     sodipodi:rx="2"
     sodipodi:ry="2"
     d="m 21,25 a 2,2 0 1 1 -4,0 2,2 0 1 1 4,0 z"
     transform="matrix(0.75,0,0,0.75,4.25,5.75)" />
  <path
     style="fill:#478cbf;fill-opacity:1;stroke:none"
     d="M 21.5 13 L 18.53125 14 L 19 17 L 16.4375 18.40625 L 15 17 L 12 20 L 14 22 L 14 27.4375 L 14.5 27.46875 L 14.5 29.09375 L 16.5 29.875 L 16.5 28.15625 C 17.985157 28.479692 18.653984 28.619715 19.5 28.6875 L 19.5 30.25 L 21.5 30.84375 L 21.5 29 L 24 29 L 26.5 29 L 26.5 30.84375 L 28.5 30.25 L 28.5 28.6875 C 29.346016 28.619715 30.014843 28.479692 31.5 28.15625 L 31.5 29.875 L 33.5 29.09375 L 33.5 27.46875 L 34 27.4375 L 34 22 L 36 20 L 33 17 L 31.5625 18.40625 L 29 17 L 29.46875 14 L 26.5 13 L 25.375 15 L 24 15 L 22.625 15 L 21.5 13 z M 18.5 22 C 19.880712 22 21 23.119288 21 24.5 C 21 25.880712 19.880712 27 18.5 27 C 17.119288 27 16 25.880712 16 24.5 C 16 23.119288 17.119288 22 18.5 22 z M 29.5 22 C 30.880712 22 32 23.119288 32 24.5 C 32 25.880712 30.880712 27 29.5 27 C 28.119288 27 27 25.880712 27 24.5 C 27 23.119288 28.119288 22 29.5 22 z M 24 24 C 24.554 24 25 24.446 25 25 L 25 27 C 25 27.554 24.554 28 24 28 C 23.446 28 23 27.554 23 27 L 23 25 C 23 24.446 23.446 24 24 24 z "
     id="path3857" />
  <path
     sodipodi:type="arc"
     style="fill:#353535;fill-opacity:1;fill-rule:nonzero;stroke:none"
     id="path3889-6"
     sodipodi:cx="19"
     sodipodi:cy="25"
     sodipodi:rx="2"
     sodipodi:ry="2"
     d="m 21,25 a 2,2 0 1 1 -4,0 2,2 0 1 1 4,0 z"
     transform="matrix(0.75,0,0,0.75,15.25,5.75)" />
</svg>

<svg xmlns="http://www.w3.org/2000/svg" viewBox="0 0 48 48">
 <defs>
  <linearGradient id="linearGradient3764" x1="1" x2="47" gradientUnits="userSpaceOnUse" gradientTransform="matrix(0,-1,1,0,-1.5e-6,47.999998)">
   <stop style="stop-color:#e4e4e4;stop-opacity:1"/>
   <stop offset="1" style="stop-color:#eee;stop-opacity:1"/>
  </linearGradient>
 </defs>
 <g>
  <path d="m 36.31 5 c 5.859 4.062 9.688 10.831 9.688 18.5 c 0 12.426 -10.07 22.5 -22.5 22.5 c -7.669 0 -14.438 -3.828 -18.5 -9.688 c 1.037 1.822 2.306 3.499 3.781 4.969 c 4.085 3.712 9.514 5.969 15.469 5.969 c 12.703 0 23 -10.298 23 -23 c 0 -5.954 -2.256 -11.384 -5.969 -15.469 c -1.469 -1.475 -3.147 -2.744 -4.969 -3.781 z m 4.969 3.781 c 3.854 4.113 6.219 9.637 6.219 15.719 c 0 12.703 -10.297 23 -23 23 c -6.081 0 -11.606 -2.364 -15.719 -6.219 c 4.16 4.144 9.883 6.719 16.219 6.719 c 12.703 0 23 -10.298 23 -23 c 0 -6.335 -2.575 -12.06 -6.719 -16.219 z" style="opacity:0.05"/>
  <path d="m 41.28 8.781 c 3.712 4.085 5.969 9.514 5.969 15.469 c 0 12.703 -10.297 23 -23 23 c -5.954 0 -11.384 -2.256 -15.469 -5.969 c 4.113 3.854 9.637 6.219 15.719 6.219 c 12.703 0 23 -10.298 23 -23 c 0 -6.081 -2.364 -11.606 -6.219 -15.719 z" style="opacity:0.1"/>
  <path d="m 31.25 2.375 c 8.615 3.154 14.75 11.417 14.75 21.13 c 0 12.426 -10.07 22.5 -22.5 22.5 c -9.708 0 -17.971 -6.135 -21.12 -14.75 a 23 23 0 0 0 44.875 -7 a 23 23 0 0 0 -16 -21.875 z" style="opacity:0.2"/>
 </g>
 <g>
  <path d="m 24 1 c 12.703 0 23 10.297 23 23 c 0 12.703 -10.297 23 -23 23 -12.703 0 -23 -10.297 -23 -23 0 -12.703 10.297 -23 23 -23 z" style="fill:url(#linearGradient3764);fill-opacity:1"/>
 </g>
 <path d="m 22.5 13.999 -2.969 1 0.469 3 -2.563 1.406 l -1.438 -1.406 l -3 3 2 2 0 5.438 0.5 0.031 0 1.625 2 0.781 0 -1.719 c 1.485 0.323 2.154 0.463 3 0.531 l 0 1.563 2 0.594 0 -1.844 2.5 0 2.5 0 0 1.844 2 -0.594 0 -1.563 c 0.846 -0.068 1.515 -0.208 3 -0.531 l 0 1.719 2 -0.781 0 -1.625 0.5 -0.031 0 -5.438 2 -2 -3 -3 -1.438 1.406 l -2.563 -1.406 l 0.469 -3 -2.969 -1 -1.125 2 -1.375 0 -1.375 0 -1.125 -2 z m -3 9 c 1.381 0 2.5 1.119 2.5 2.5 0 1.381 -1.119 2.5 -2.5 2.5 -1.381 0 -2.5 -1.119 -2.5 -2.5 0 -1.381 1.119 -2.5 2.5 -2.5 z m 11 0 c 1.381 0 2.5 1.119 2.5 2.5 0 1.381 -1.119 2.5 -2.5 2.5 -1.381 0 -2.5 -1.119 -2.5 -2.5 0 -1.381 1.119 -2.5 2.5 -2.5 z m -11 1 c -0.828 0 -1.5 0.672 -1.5 1.5 0 0.828 0.672 1.5 1.5 1.5 0.828 0 1.5 -0.672 1.5 -1.5 0 -0.828 -0.672 -1.5 -1.5 -1.5 z m 11 0 c -0.828 0 -1.5 0.672 -1.5 1.5 0 0.828 0.672 1.5 1.5 1.5 0.828 0 1.5 -0.672 1.5 -1.5 0 -0.828 -0.672 -1.5 -1.5 -1.5 z m -5.5 1 c 0.554 0 1 0.446 1 1 l 0 2 c 0 0.554 -0.446 1 -1 1 -0.554 0 -1 -0.446 -1 -1 l 0 -2 c 0 -0.554 0.446 -1 1 -1 z m -11.688 3.5 0.031 2 c 2.416 3.691 6.06 5.861 11.656 5.625 5.599 0.236 9.24 -1.934 11.656 -5.625 l 0.031 -2 l -1.688 0.531 0 1.469 c -0.489 0.315 -2 0.728 -3 1 l 0 -1.625 -2 0.313 0 1.313 c -0.566 0.478 -1.621 0.793 -3 1 l 0 -2 -2 0 -2 0 0 2 c -1.379 -0.207 -2.434 -0.522 -3 -1 l 0 -1.313 -2 -0.313 0 1.625 c -1 -0.272 -2.511 -0.685 -3 -1 l 0 -1.469 -1.688 -0.531 z" style="fill:#000;opacity:0.1;fill-opacity:1;stroke:none"/>
 <g>
  <path d="m 40.03 7.531 c 3.712 4.084 5.969 9.514 5.969 15.469 0 12.703 -10.297 23 -23 23 c -5.954 0 -11.384 -2.256 -15.469 -5.969 4.178 4.291 10.01 6.969 16.469 6.969 c 12.703 0 23 -10.298 23 -23 0 -6.462 -2.677 -12.291 -6.969 -16.469 z" style="opacity:0.1"/>
 </g>
 <path d="m 12.313 27.5 l 0.031 2 c 2.416 3.691 6.06 5.861 11.656 5.625 c 5.599 0.236 9.24 -1.934 11.656 -5.625 l 0.031 -2 l -1.688 0.531 l 0 1.469 c -0.489 0.315 -2 0.728 -3 1 l 0 -1.625 l -2 0.313 l 0 1.313 c -0.566 0.478 -1.621 0.793 -3 1 l 0 -2 l -2 0 l -2 0 l 0 2 c -1.379 -0.207 -2.434 -0.522 -3 -1 l 0 -1.313 l -2 -0.313 l 0 1.625 c -1 -0.272 -2.511 -0.685 -3 -1 l 0 -1.469 l -1.688 -0.531 z" style="fill:#478cbf;fill-opacity:1;stroke:none"/>
 <path d="m 21 25 a 2 2 0 1 1 -4 0 2 2 0 1 1 4 0 z" transform="matrix(0.75,0,0,0.75,4.25,5.75)" style="fill:#353535;fill-opacity:1;stroke:none;fill-rule:nonzero"/>
 <path d="m 21.5 13 l -2.969 1 l 0.469 3 l -2.563 1.406 l -1.438 -1.406 l -3 3 l 2 2 l 0 5.438 l 0.5 0.031 l 0 1.625 l 2 0.781 l 0 -1.719 c 1.485 0.323 2.154 0.463 3 0.531 l 0 1.563 l 2 0.594 l 0 -1.844 l 2.5 0 l 2.5 0 l 0 1.844 l 2 -0.594 l 0 -1.563 c 0.846 -0.068 1.515 -0.208 3 -0.531 l 0 1.719 l 2 -0.781 l 0 -1.625 l 0.5 -0.031 l 0 -5.438 l 2 -2 l -3 -3 l -1.438 1.406 l -2.563 -1.406 l 0.469 -3 l -2.969 -1 l -1.125 2 l -1.375 0 l -1.375 0 l -1.125 -2 z m -3 9 c 1.381 0 2.5 1.119 2.5 2.5 c 0 1.381 -1.119 2.5 -2.5 2.5 c -1.381 0 -2.5 -1.119 -2.5 -2.5 c 0 -1.381 1.119 -2.5 2.5 -2.5 z m 11 0 c 1.381 0 2.5 1.119 2.5 2.5 c 0 1.381 -1.119 2.5 -2.5 2.5 c -1.381 0 -2.5 -1.119 -2.5 -2.5 c 0 -1.381 1.119 -2.5 2.5 -2.5 z m -5.5 2 c 0.554 0 1 0.446 1 1 l 0 2 c 0 0.554 -0.446 1 -1 1 c -0.554 0 -1 -0.446 -1 -1 l 0 -2 c 0 -0.554 0.446 -1 1 -1 z" style="fill:#478cbf;fill-opacity:1;stroke:none"/>
 <path d="m 21 25 a 2 2 0 1 1 -4 0 2 2 0 1 1 4 0 z" transform="matrix(0.75,0,0,0.75,15.25,5.75)" style="fill:#353535;fill-opacity:1;stroke:none;fill-rule:nonzero"/>
</svg>
